X: 1
T: Jamaica Jam
M: 2/4
L: 1/8
R: polka
K: Dmaj
fB ba |fe de |c>B AF |Ea fe |
f2 ba |fe da |f2 fa |f BB e :|
c>B AF |EA AE |FB BA/B/ |cB Be |
cB AF |EA Ac |ec BB |cA A2 :|
